X:1
T: The Dalesman
C:
R:Reel
Q: 232
K:D
M:4/4
L:1/8
|:fg|a2 fa ge cA|dD FA d2 cd|e2 ef gf ed|cA ce a2 fg|
a2 fa ge cA|dD FA B2 BA|G2 gf eA Bc|d2 d2 d2:|
|:A,D|F2 FG AF DA,|B,2 BA GF EF|G2 GA BG EB,|C2 ed cA ce|
a2 fa ge cA|d2 cd fe dc|B2 ((3dcB) Ac eg|f2 d2 d2:|
